X: 27095
T: Miss Linda MacFarlane
R: reel
M: 4/4
K: Gmajor
|:zD|G2 FG DGBd|d2 cA G2 FG|E2 ed cBAG|B2 A2 A2 D2|
G2 FG DGBd|d2 cA G2 FG|E2 ed cFBA|G2 GA G2:|
|:Bc|d2 Bc dBgf|e2 cd ecgd|d2 GA Bdgd|B2 A2 AcBA|
G2 FG DGBd|d2 cA G2 FG|E2 ed cFBA|G2 GA G2:|

